X:1
T:Title
%%score { ( 1 3 ) | 2 }
L:1/8
Q:1/4=100
M:4/4
K:Ab
V:1 treble nm="Grand Piano"
V:3 treble 
V:2 treble 
V:1
 A3 A A2 E2 | C2 E2 A4 | c4 A4 |[M:3/4] B6 |[M:1/4] E2 |[M:4/4] A3 A A2 E2 | C2 E2 A4 | B4 z4 | %8
w: Samuel~Beazley * * *||||||||
[M:3/4] E2 E2 E2 |[M:1/4] E2 |[M:4/4] d3 c B2 A2 | G2 A2 B4 | c3 d e2 d2 | c2 d2 e4 | f3 e d2 c2 | %15
w: |||||||
 B2 A2 G2 F2 | E4 B4 | A6 z2 | z2 A2[K:bass] E,2 A2 | z2[K:treble] A2 A2 z2 | z2 G2 E,2 G2 | %21
w: ||||||
 z2 A2 A2 z2 | z2 A2 G,2 A2 | z2 A2 z2 A2 | B,2 A2[K:bass] z2 A2 | z2[K:treble] G2 G2 E2 | %26
w: |||||
 [CEA]3 [CEA] [CEA]2 [A,CE]2 | [A,EA]2 B2 c4 | c3 c c2 B2 | c2 d2 e4 | f3 e d2 c2 | B2 A2 G2 F2 | %32
w: ||||||
 E4 B4 | A6 z2 |] %34
w: ||
V:2
 z8 | z8 | [A,EA]2 [A,E]2[K:bass] [A,CE]2 [A,C]2 |[M:3/4] [E,E]2 [E,E]2 [E,E]2 |[M:1/4] z2 | %5
[M:4/4] z8 | z8 | [B,,A,]2 [B,,A,]2 [B,,B,]2 [B,,A,]2 |[M:3/4] [E,G,]2 [E,G,]2 [E,G,]2 | %9
[M:1/4] z2 |[M:4/4][K:treble] B3 A G2 F2 | E2 F2 G4 | A3 B c2 B2 | A2 B2 c4 | %14
 [DA]3 [CEA] [B,EG]2 [A,EA]2 | [G,E]2 [F,B,=D]2 [E,B,E]2 [=D,A,_C]2 | %16
 [E,A,C]2 [E,A,]2 [E,G,D]2 [E,G,]2 | [A,,A,]2 [A,,A,]2 [A,,A,]2 z2 | z2 [CE]2 z2 [F,CE]2 | %19
 z2[K:treble] [CE]2 [CE]2 z2 | z2 [DE]2 z2 [B,DE]2 | z2 [CE]2 [CE]2 z2 | z2 [DF]2 z2 [F,DF]2 | %23
 z2 [CE]2 z2 [CE]2 | z2 [B,=D]2 z2 [B,D]2 | z2[K:bass] [B,E]2 [B,E]2 E,2 | A,,3 A,, A,,2 A,,2 | %27
 C,2 [E,G,E]2 [A,E]4 | [A,E]3 [A,E] [A,E]2 [E,G,E]2 | [A,E]2 [B,EG]2 [CEA]4 | %30
 [DA]3 [CEA] [B,EG]2 [A,EA]2 | [G,E]2 [F,B,=D]2 [E,B,E]2 [=D,A,_C]2 | %32
 [E,A,C]2 [E,A,]2 [E,G,D]2 [E,G,]2 | [A,,A,]2 [A,,A,]2 [A,,A,]2 z2 |] %34
V:3
 x8 | x8 | z2 A2 z2 E2 |[M:3/4] G2 G2 G2 |[M:1/4] x2 |[M:4/4] x8 | x8 | =D2 D2 [DA]2 [DF]2 | %8
[M:3/4] x6 |[M:1/4] x2 |[M:4/4] x8 | x8 | x8 | x8 | x8 | x8 | z2 C2 z2 D2 | C2 C2 C2 z2 | %18
 A,4[K:bass] z4 | E,6[K:treble] z2 | B,4 z4 | A,6 z2 | A,4 z4 | E,4 A,4 | z4[K:bass] B,,4 | %25
 E,6[K:treble] z2 | x8 | x8 | x8 | x8 | x8 | x8 | z2 C2 z2 D2 | C2 C2 C2 z2 |] %34

